X:120
T:Ormond Bridge. JJo8.120
B:J.Johnson Choice Collection Vol 8 1758
Z:vmp.Simon Wilson 2013 www.village-music-project.org.uk
M:6/8
L:1/8
Q:3/8=120
K:A
|:cdee2a|cdee2a|cdee2a|ecA BGE|cdee2a|cdee2a|gbgfaf|Bc^de3:|
|:GABB2e|GABB2e|eBd cBA|BFA GFE|cdee2a|deff2a|fdf ecA|EFGA3:|
